svg/NEPAnode-FreeOpenSourceLicenses/licenses-kopimi.svg

<?xml version="1.0" encoding="UTF-8" standalone="no"?>
<!DOCTYPE svg PUBLIC "-//W3C//DTD SVG 1.1//EN" "http://www.w3.org/Graphics/SVG/1.1/DTD/svg11.dtd">
<!-- Created with Inkscape (http://www.inkscape.org/) --><svg height="602.672" id="Layer_1" space="preserve" version="1.1" viewBox="0 0 612 792" width="579.07098" xmlns="http://www.w3.org/2000/svg" xmlns:svg="http://www.w3.org/2000/svg">
  <metadata>
    <rdf:RDF xmlns:cc="http://web.resource.org/cc/" xmlns:dc="http://purl.org/dc/elements/1.1/" xmlns:rdf="http://www.w3.org/1999/02/22-rdf-syntax-ns#">
      <cc:Work rdf:about="">
        <dc:title></dc:title>
        <dc:description></dc:description>
        <dc:subject>
          <rdf:Bag>
            <rdf:li></rdf:li>
          </rdf:Bag>
        </dc:subject>
        <dc:publisher>
          <cc:Agent rdf:about="http://commons.wikimedia.org/">
            <dc:title>Source: Wikimedia Commons, Source: Wikimedia Commons, Source: Wikimedia Commons</dc:title>
          </cc:Agent>
        </dc:publisher>
        <dc:creator>
          <cc:Agent>
            <dc:title></dc:title>
          </cc:Agent>
        </dc:creator>
        <dc:rights>
          <cc:Agent>
            <dc:title></dc:title>
          </cc:Agent>
        </dc:rights>
        <dc:date></dc:date>
        <dc:format>image/svg+xml</dc:format>
        <dc:type rdf:resource="http://purl.org/dc/dcmitype/StillImage"/>
        <cc:license rdf:resource="http://en.wikipedia.org/wiki/Public_domain"/>
        <dc:language>en</dc:language>
      </cc:Work>
    </rdf:RDF>
  </metadata>
  <defs id="defs8"></defs>
  <path d="M 441.07873,720.52422 L 347.83986,787.1277 L -69.186171,492.03434 L -69.186171,240.99589 L 24.052701,175.42161 L 173.64996,279.93086 L 173.64996,69.884463 L 266.89405,3.2796868 L 361.15821,69.884463 L 361.15821,279.92955 L 428.78306,232.79617 L 508.7127,289.15717 L 589.64549,231.77349 L 683.91486,298.37826 L 683.91486,549.4115 L 589.64549,614.98708 L 508.7127,557.60861 L 441.07873,605.76208 L 441.07873,720.52422 z M -43.573458,240.99589 L 24.052701,289.15717 L 92.702847,240.99589 L 24.052701,192.83982 L -43.573458,240.99589 z M 37.374959,298.37826 L 104.99981,346.53173 L 173.65127,298.37826 L 106.0251,250.21438 L 37.374959,298.37826 z M 117.29678,355.75413 L 185.94433,403.91019 L 254.59578,355.75413 L 185.94433,307.59806 L 117.29678,355.75413 z M 266.89405,21.724487 L 198.2426,69.884463 L 266.89405,118.03533 L 335.53638,69.884463 L 266.89405,21.724487 z M 266.89405,136.48403 L 198.2426,184.6401 L 266.89405,232.79617 L 334.52151,183.61742 L 266.89405,136.48403 z M 266.89405,250.21568 L 198.2426,298.37957 L 266.89405,346.53303 L 334.52151,298.37957 L 266.89405,250.21568 z M 198.2426,413.13259 L 266.89405,460.26598 L 334.52151,412.11251 L 266.89405,364.97262 L 198.2426,413.13259 z M 279.18971,469.48317 L 347.83986,517.63923 L 415.4582,469.48317 L 347.83986,421.33492 L 279.18971,469.48317 z M 428.78437,250.21568 L 360.12901,298.37957 L 427.76168,346.53303 L 496.40792,298.37957 L 428.78437,250.21568 z M 589.64679,250.21568 L 522.01672,298.37957 L 589.64679,346.53303 L 658.29563,298.37957 L 589.64679,250.21568 z" id="path5" style="stroke:#ffffff;stroke-width:1.30278289"/>
</svg>

<svg height="602.67" viewBox="0 0 612 792" width="579.07" xmlns="http://www.w3.org/2000/svg"><path d="m441.08 720.52l-93.24 66.6-417.03-295.09v-251.04l93.24-65.57 149.6 104.51v-210.05l93.24-66.6 94.26 66.6v210.05l67.62-47.13 79.93 56.36 80.933-57.38 94.27 66.6v251.03l-94.27 65.58-80.933-57.38-67.63 48.15v114.76zm-484.65-479.53l67.63 48.16 68.65-48.16-68.65-48.16-67.63 48.16zm80.948 57.38l67.62 48.15 68.65-48.15-67.63-48.16-68.65 48.16zm79.922 57.38l68.65 48.16 68.65-48.16-68.65-48.16-68.65 48.16zm149.6-334.03l-68.65 48.16 68.65 48.15 68.64-48.15-68.64-48.16zm0 114.76l-68.65 48.16 68.65 48.16 67.63-49.18-67.63-47.13zm0 113.73l-68.65 48.16 68.65 48.15 67.63-48.15-67.63-48.16zm-68.65 162.92l68.65 47.13 67.63-48.15-67.63-47.14-68.65 48.16zm80.947 56.35l68.65 48.16 67.62-48.16-67.62-48.15-68.65 48.15zm149.59-219.27l-68.66 48.16 67.63 48.15 68.65-48.15-67.62-48.16zm160.86 0l-67.63 48.16 67.63 48.15 68.65-48.15-68.65-48.16z" stroke="#fff" stroke-width="1.303"/></svg>
